X: 4495
T: Bonny Highland Laddie, The
R: reel
M: 4/4
K: Dmajor
|:dB|A2D2 F2A2|BAGF E2dB|A2D2 F2A2|BcdA F2A2|
D2d2 d2ef|e2E2 E3D|F2A2 BcdB|A2D2 F2:|
|:A2|d3e defd|gfed e2fe|d2A2 F2A2|BcdA F2A2|
D2d2 d2ef|e2E2 E3D|F2A2 BcdB|A2D2 F2:|

